X:1
T:Title
%%score { ( 1 3 ) | ( 2 4 ) }
L:1/8
Q:1/4=100
M:6/4
K:Bb
V:1 treble nm="Grand Piano"
V:3 treble 
V:2 bass 
V:4 bass 
V:1
 [DF]3 [EG] [DF]2 [B,D]2 [DF]2 [DB]2 | [Fd]4 [DB]2 .[DF]6 | [EG]2 [GB]2 [EG]2 .[DF]6 | %3
w: W.~J.~Kirkpatrick * * * * *|||
 [FB]2 [EA]2 [DB]2 .c6 | F3 G F2 D2 [DF]2 [DB]2 | [Fd]4 [DB]2 .[DF]6 | G3 B B2 B2 A2 c2 | [DB]12 | %8
w: |||||
 B3 B B2 c2 B2 G2 | [DF]2 [DF]2 [DB]2 .[Fd]6 | d3 c B2 d3 c B2 | [=Ed]3 [Ec] [EB]2 .[_Ec]6 | %12
w: ||||
 [Fd]3 [Ec] [DB]2 [DF]2 [DB]2 [Fd]2 | [_Af]3 [Ge] [Ge]2 [Ge]6 | d3 c B2 c2 G2 A2 | [B,DB]12 | %16
w: ||||
 .[F,DF]6 .[DF]6 | .[DF]6 .[DB]6 | B3 B B2 [=EB]2 [EA]2 [EB]2 | c12 | .[Fd]6 .[B,DF]6 | %21
w: |||||
[M:15/8] .[_Af]3 e e2 [Ge]3- [Ge]6 |[M:6/4] d3 c B2 c2 G2 A2 | B12 | .[F,DF]6 .[DF]6 | %25
w: ||||
 .[DF]6 .[DB]6 | B3 B B2 [=EB]2 [EA]2 [EB]2 | c12 | .[Fd]6 .[B,DF]6 | %29
w: ||||
[M:15/8] .[_Af]3 e e2 [Ge]3- [Ge]6 |[M:6/4] d3 c B2 c2 G2 A2 | B12 |] %32
w: |||
V:2
 [B,,B,]3 [B,,B,] [B,,B,]2 [B,,F,]2 [B,,B,]2 [B,,B,]2 | [B,,B,]4 [B,,F,]2 .[B,,B,]6 | %2
 [E,B,]2 [E,B,]2 [E,B,]2 .[B,,B,]6 | [D,F,]2 [C,F,]2 [B,,F,]2 .[F,A,E]6 | %4
 [B,D]3 [B,E] [B,D]2 [B,,F,B,]2 [B,,B,]2 [B,,B,]2 | [B,,B,]4 [B,,F,]2 .[B,,B,]6 | %6
 [E,B,E]3 [E,G,E] [E,G,E]2 [F,D]2 [F,C]2 [F,E]2 | [B,,F,]12 | %8
 [E,G,E]3 [E,G,E] [E,G,E]2 [E,G,E]2 [E,G,E]2 [E,B,E]2 | [B,,B,]2 [B,,B,]2 [B,,F,]2 .[B,,B,]6 | %10
 [G,B,G]3 [G,B,E] [G,B,D]2 [G,B,G]3 [G,B,E][K:bass] [G,B,D]2 | [C,B,]3 [C,A,] [C,G,]2 .[F,A,]6 | %12
 [B,,B,]3 [B,,F,] [B,,F,]2 [B,,B,]2 [B,,B,]2 [B,,B,]2 | [D,B,]3 [E,B,] [E,B,]2 [E,B,]6 | %14
 [F,B,F]3 [F,B,E] [F,B,D]2 [F,A,E]2 [F,B,E]2 [F,CE]2 | B,,12 | .B,,3 G, F,2 [B,,D,]2 F,2 B,2 | %17
 .B,,4 B,2 .[B,,F,]6 | [E,G,E]3 [E,G,E] [E,G,E]2 [C,G,]2 [C,C]2 [C,B,]2 | .[A,F]6 z6 | %20
 .[B,,B,]3[K:treble] c B2[K:bass] B,,2[K:treble] B2 d2 | %21
[M:15/8][K:bass] .[D,B,]3 z3 [E,B,]3- [E,B,]6 | %22
[M:6/4] [F,B,F]3 [F,B,E] [F,B,D]2 [F,A,E]2 [F,B,E]2 [F,CE]2 | z2 z F, G,2 .F,6 | %24
 .B,,3 G, F,2 [B,,D,]2 F,2 B,2 | .B,,4 B,2 .[B,,F,]6 | %26
 [E,G,E]3 [E,G,E] [E,G,E]2 [C,G,]2 [C,C]2 [C,B,]2 | [A,F]4 B,2 C6 | %28
 .[B,,B,]3[K:treble] c B2[K:bass] B,,2[K:treble] B2 d2 | %29
[M:15/8][K:bass] .[D,B,]3 z3 [E,B,]3- [E,B,]6 | %30
[M:6/4] [F,B,F]3 [F,B,E] [F,B,D]2 [F,A,E]2 [F,B,E]2 [F,CE]2 | z2 z F, G,2 .F,6 |] %32
V:3
 x12 | x12 | x12 | x12 | x12 | x12 | x12 | x12 | x12 | x12 | x12 | x12 | x12 | x12 | x12 | x12 | %16
 x12 | x12 | x12 | z4 G2 A6 | x12 |[M:15/8] x15 |[M:6/4] x12 | [B,D]3 D E2 .D6 | x12 | x12 | x12 | %27
 z4 G2 A6 | x12 |[M:15/8] x15 |[M:6/4] x12 | [B,D]3 D E2 .D6 |] %32
V:4
 x12 | x12 | x12 | x12 | x12 | x12 | x12 | x12 | x12 | x12 | x10[K:bass] x2 | x12 | x12 | x12 | %14
 x12 | x12 | x12 | x12 | x12 | F,4- [F,-B,]2 [F,C]6 | x3[K:treble] x3[K:bass] x2[K:treble] x4 | %21
[M:15/8][K:bass] x15 |[M:6/4] x12 | B,,12 | x12 | x12 | x12 | F,12 | %28
 x3[K:treble] x3[K:bass] x2[K:treble] x4 |[M:15/8][K:bass] x15 |[M:6/4] x12 | B,,12 |] %32

